X: 21361
T: The COBLER OF CASTLEBERRY
%R: waltz, minuet
B: "Edinburgh Repository of Music" v.2 p.136 #1
F: http://digital.nls.uk/special-collections-of-printed-music/pageturner.cfm?id=87776133
Z: 2015 John Chambers <jc:trillian.mit.edu>
N: The 2nd strain has initial repeat but no final repeat; not fixed.
M: 3/4
L: 1/8
K: Bb
fdf |\
d2 BBGB | F2 DBAB | cd/e/ dfGe | d2 c fdf |\
d2 BBGB | F2 D c=Bc | c>BAffc | d3 dc=E |\
FG/A/ c/B/A/G/ F=E | F3 :|
|: fff |\
f2 dfge | f2 dfge |\
f>d Bfed | d2 c fdf | d2 BBGB | F2 D BAB |\
cd/e/ dBcd | e3 gfA | Bc/d/ f/e/d/c/ BA | B3 |]

%%sep 2 1 500
%%sep 1 1 500

